X:480
T: Crabs in the Greasepot
T: Na Port\'ain sa Ghr\'eiscphota
S: B.Breathnach:"Ceol Rince na hEireann" IV/3
Z: B.Black
N: No repeats
L: 1/8
M: 6/8
R: jig
K: Ador
A2A A2A|Bcd efg|A(3A/A/A/ ABc|dBG AGE|
A(3A/A/A/ A(3A/A/A/|Bcd efg|def gfe|dBG AGE ||
e2A ABA|e2f gfg|e2A ABc|dBG AGE|
e2A ABA|e2f gfe|def gfe|dBG AGE ||
AB/c/A Bc/d/B|cd/e/f Bc/d/B|AB/c/A Bc/d/g|dBG AGE|
AB/c/A Bc/d/B|cd/e/f Bc/d/B|GBd gfe|dBG AGE ||
